X:407
T: HIER STEHEN WIRAUF UNSERN KRUECKEN
N: E0334A
O: Europa, Mitteleuropa, Deutschland; Frankreich, Elsass
R: historisches Lied, Krieg, Invalieden; Tod Friedrich II (1786)
M: 4/4
L: 1/8
K: Bb
fdf | B4zbbb | a2f2z
abg | f2dgfece | e2d2z
dcd | fee2z2de | gff2z
dcd | fee2z2de | gff2z
bbb | g2fed2c2 | fedef
bbb | g2fef2A2 | B4z

@@@ Tune index: 4057
